X: 13157
T: First Night In America, The
R: jig
M: 6/8
K: Gmajor
~G3 AFD|~G3 Bcd|e2g dBG|ABG AFD|
~G3 AFD|~G3 Bcd|e2g dBG|1 AGF GBD:|2 AGF GBd||
~g3 bge|d^cd ecA|B2g gfg|abg afd|
~g3 bge|~d3 e^cA|Bdg dBG|1 AGF GBd:|2 AGF G3||

